public/files/perm/themes/base/flux/img/back_arrow.svg

<svg fill="none" height="20" viewBox="0 0 23 20" width="23" xmlns="http://www.w3.org/2000/svg"><path d="m10.2222 5.62117c3.8334 0 12.7778.62193 12.7778 8.74133 0 2.1377-.598 3.9815-1.3845 5.3317-.3095.5312-1.1385.3281-1.1305-.2844.0419-3.2097-.5989-6.2974-10.2628-6.2974l.0007 4.3847c0 1.1157-1.39856 1.6595-2.1844.8469l-7.574667-7.8381c-.618444-.63752-.618444-1.64072 0-2.27827l7.574987-7.838118c.78583-.812564 2.18408-.268768 2.18408.846948z" fill="#282573"/></svg>

<svg width="23" height="20" viewBox="0 0 23 20" fill="none" xmlns="http://www.w3.org/2000/svg">
<path d="M10.2222 5.62117C14.0556 5.62117 23 6.2431 23 14.3625C23 16.5002 22.402 18.344 21.6155 19.6942C21.306 20.2254 20.477 20.0223 20.485 19.4098C20.5269 16.2001 19.8861 13.1124 10.2222 13.1124L10.2229 17.4971C10.2229 18.6128 8.82434 19.1566 8.0385 18.344L0.463833 10.5059C-0.154611 9.86838 -0.154611 8.86518 0.463833 8.22763L8.03882 0.389512C8.82465 -0.423052 10.2229 0.120744 10.2229 1.23646L10.2222 5.62117Z" fill="#282573"/>
</svg>
